X:1
T:Some Other Blues
C:John Coltrane
Z:All Rights Reserved
L:1/8
M:4/4
K:F
V:1 treble nm=" " snm=" "
%%MIDI control 7 100
%%MIDI control 10 64
V:1
 c |"F7" ffg_e ffgc |"Bb7" _eefc eefc- |"F7" c4- cAF_E | z8 |"Bb7" ^cdBA _A=cdf | %6
"Eb7" ^fg_ed _dBec- |"Ab7" c4- cB_G_E |"Db7" z8 |"C7" c2 ce gceg | %10
"Bb7" !tenuto!f2 .d2 !tenuto!B2 !tenuto!G2 |1"F7" F4 .F2 !tenuto!F2 | z8 :|2"F7" F3 _E z F z2 | %14
 z8 |] %15

